X:1
T:Title
%%score ( 1 2 ) { 3 | 4 }
L:1/8
Q:1/4=115
M:4/4
K:G
V:1 treble nm="Grand Piano, Unnamed-000"
V:2 treble 
V:3 bass nm="Choir Pad, St. Thomas, 66.86"
V:4 bass 
V:1
 [B,D]2 [DG]2 [DG]2 [GB]2 | [FA][EG] [FA]6 | .B2 z2 .c2 c2 | [GB]2 [FA]6 | %4
w: By~Aaron~Williams,~1770 * * *||||
 [Dd]2 [DB]2 [DG]2 [DA]2 | D2 [DG]2 [EB]2 [Fd]2 | z4 .d2 z2 | [FA]2 [DG]6- | [DG]2 z2 z4 |] %9
w: |||||
V:2
 x8 | x8 | G-[Gc] [Gd]2 G-[GB]EF | x8 | x8 | x8 | [Gd]2 [Ge]2 A-[Ac] B2 | x8 | x8 |] %9
V:3
 G,2 G,2 B,2 D2 | D2[K:treble] D6 | D2 D2 D2 C2 | D2 D6 | A,2 G,2 G,2 F,2 | A,2 B,2 G,2 A,2 | %6
 B,2[K:treble] C2 E2 D2 | C2 B,6- | B,2 z2 z4 |] %9
V:4
 G,,2 B,,2 G,,2 G,2 | D,2 D,6 | G,A, B,2 G,2 A,2 | G,2 D,6 | F,2 z2 B,,2 D,2 | F,2 G,2 E,2 D,2 | %6
 G,2 C,2 A,,2 D,2 | D,2 G,,6- | G,,2 z2 z4 |] %9

